X: 126
T: Szczęśliwy człowiek prawdziwie,
C: Mikołaj Gomółka
%%abc-version 2.0
%%abcx-abcm2ps-target-version 5.9.1 (29 Sep 2008)
%%abc-creator hum2abc beta
%%abcx-conversion-date 2021/10/04 07:59:10
%%abc-edited-by Leszek Kubiak
%%abcx-initial-encoding-date data 2020-02-21
%%humdrum-veritas 3348625
%%humdrum-veritas-data 863413668
%%linebreak <none>
%%barnumbers 0
L: 1/4
M: C|
N: Derived from pl-wn--sd-xvi-qu-273--128_gomolka-mikolaj--szczesliwy-czlowiek-prawdziwie.krn
%%staves [1 2 3 4]
V: 1 clef=treble
V: 2 clef=alto
V: 3 clef=alto
V: 4
K: C
[V:1] G4G2G2 [|] 
[V:2] D4E2E2 [|] 
[V:3] B,4B,2CD [|] 
[V:4] G,4E,2C,2 [|] 
[V:1] G2A4B2 [|] 
[V:2] C2>D2EFG4 [|] 
[V:3] E2>D2C2D4 [|] 
[V:4] C2>B,2A,2G,2 [|] 
[V:1] c4B2d4 [|] 
[V:2] F2G2A3 [|] 
[V:3] C2D2F2 [|] 
[V:4] A,4G,2D,2 [|] 
[V:1] A2c4 [|] 
[V:2] GF2G2G3 [|] 
[V:3] F4E4 [|] 
[V:4] F,4C,D,E,F, [|] 
[V:1] B2A4A2 [|] 
[V:2] FE4FE [|] 
[V:3] D2C4DC [|] 
[V:4] G,2A,4F,2 [|] 
[V:1] G4G2c2 [|] 
[V:2] DE2DE2E2 [|] 
[V:3] B,C2B,C2E2 [|] 
[V:4] A,4C,2C2 [|] 
[V:1] f2f2e3d [|] 
[V:2] C2>D2EFG2 [|] 
[V:3] A4G2E2 [|] 
[V:4] A,2F,2C3B, [|] 
[V:1] c2B2A4 [|] 
[V:2] C2D4C2 [|] 
[V:3] F2G4F2 [|] 
[V:4] A,2G,2A,4 [|] 
[V:1] B2d2A2c2 [|] 
[V:2] D2D2C2G3 [|] 
[V:3] G2F2F2E3 [|] 
[V:4] G,2D,2F,2C,2 [|] 
[V:1] G2A2>B2c4 [|] 
[V:2] FE4A2 [|] 
[V:3] DC4FE [|] 
[V:4] E,2A,4F,2 [|] 
[V:1] B2c32 [|] 
[V:2] G2>F2E32 [|] 
[V:3] DCD2C32 [|] 
[V:4] G,4C,32 [|] 


